X:1
T:Title
%%score { 1 | 2 }
L:1/8
M:6/8
K:Ab
V:1 treble nm="Grand Piano"
V:2 bass 
V:1
 z3 z2[Q:1/4=100] E | ECE AGA |[M:7/8] AEA c3 e |[M:3/4] ec c[EAc] [DGB][CA] | %4
[M:5/8] [EGB]-[EGB]- [EGB]3 |[M:1/8] [CE] |[M:3/4] [CE]C EA GA |[M:7/8] AEA c3 e | %8
[M:3/4] fe c[Ac] [GB]A | A6 |[M:15/16] EC/-C/EA3/2- A3 | cB/-B/A B3 [Ge]3/2 | %12
[M:3/4] cB A[GB] [Ac][GB] |[M:5/8] A-A- A3 |[M:15/16] EC/-C/EA3/2- A3 | cB/-B/A B3 [Ge]3/2 | %16
[M:3/4] [EAc][DAB] [CA][DGB] [EAc][DGB] |[M:5/8] [CA]-[CA]- [CA]3 |] %18
V:2
 z3 z2 [A,C] | [A,C]A,[A,C] [A,CE][K:treble][A,DE][A,CE] | %2
[M:7/8] [A,CE][A,C][A,CE] [A,EA]3 [A,CA] |[M:3/4] [A,CA][A,EA] [A,EA][K:bass]E, E,F, | %4
[M:5/8] E,-E,- E,3 |[M:1/8] A, |[M:3/4] A,A,[K:treble] [A,C][A,CE] [A,DE][A,CE] | %7
[M:7/8] [A,CE][A,C][A,CE] [A,EA]3 [A,CA] |[M:3/4] [A,DA][A,CA] [A,EA][K:bass][E,E] [E,D][A,C] | %9
 [A,C]6 |[M:15/16] [A,C]A,/-A,/[A,C][A,C]3/2- [A,C]3 | %11
 [A,E][G,B,E]/-[G,B,E]/[F,B,=D] [E,G,D]3 [E,B,]3/2 | %12
[M:3/4][K:treble] [A,EA][A,DA][K:bass] [A,C][E,D] [E,E][E,D] |[M:5/8] [A,C]-[A,C]- [A,C]3 | %14
[M:15/16] [A,C]A,/-A,/[A,C][A,C]3/2- [A,C]3 | [A,E][G,B,E]/-[G,B,E]/[F,B,=D] [E,G,D]3 [E,B,]3/2 | %16
[M:3/4] A,A, A,E, E,E, |[M:5/8] A,-A,- A,3 |] %18

